!! "Melody of Lasting Peace", (art song) No. 116 from Jonathan Condit,
!! 'Music of the Korean Renaissance; Songs and dances of the fifteenth century',
!! London: Cambridge University Press, 1984, ISBN 0 521 24399 8; pp.218-221
!! pluck	wind	voice
!! str.
**kern	**kern	**kern
*M18/16	*M18/16	*M18/16
=1	=1	=1
8.A-	{8.a-	16b-
.	.	{32ee-
.	.	[32dd-
.	.	16dd-]
8.B-	[4.b-	4.b-
8.B-	.	.
8.B-	4.b-_	[4.b-
8.B-	.	.
8.B-	8.b-]	8.b-}]
=2	=2	=2
8B-	{8.b-	16dd-
.	.	{8ee-
16A-	.	.
8.B-	8dd-	8.dd-
.	16b-	.
8B-	8.dd-}	8.b-}
16d-	.	.
8.d-	{8.dd-	{4.b-
8.B-	4.b-}	.
8.B-	.	8.b-}
=3	=3	=3
8e-	{8ee-	16ee-
.	.	{8ee-
16d-	16dd-	.
8.B-	[8.b-	8.dd-
8d-	8b-}]	8.b-}
16B-	[16b-	8.b-
8.B-	4.b-_	[4.b-
8.B-	.	.
8.B-	8b-]	8.b-]
.	{16b-	.
=4	=4	=4
8.B-	[4.b-	16b-
.	.	[8b-
4.B-	.	4.b-_
.	8b-]	.
.	16ee-'}	.
4.B-	4.r	4.b-_
8.B-	8.r	8.b-]
=5	=5	=5
8B-	8.b-	16b-
.	.	{32ee-
.	.	[32dd-
16A-	.	16dd-]
8.B-	{16b-	4.b-
.	8a-	.
8B-	8b-	.
16d-	16dd-}	.
8.d-	{8.dd-	4.b-
8.B-	4.b-}	.
8.B-	.	8.b-}
=6	=6	=6
8e-	{16dd-	16b-
.	32ee-	[{8b-
.	[32dd-	.
16d-	16dd-]	.
8.B-	[8.b-	8.b-_
8d-	8b-}]	16b-]
.	.	16dd-
16B-	[16b-	16b-
8.B-	4.b-_	4.a-
8.B-	.	.
8.B-	8.b-]	8.f}
=7	=7	=7
8.d-	{16dd-	16b-
.	8ee-}	[{8ee-
8.e-	4.ee-	4.ee-]
8.e-	.	.
8e-	{16dd-	8.dd-
.	16ff	.
16d-	32ee-	.
.	32dd-	.
8.B-	4.b-}	4.b-}
8d-	.	.
16B-	.	.
=8	=8	=8
8B-	4.b-	[{4.b-
16A-	.	.
8.B-	.	.
8d-	{8b-	16b-]
.	.	16dd-
16B-	32dd-	16b-
.	32b-	.
8.A-	8.a-	4.a-
8.F	8.f	.
8.E-	8.e-}	8.f}
=9	=9	=9
8.d-	{8ee-	16ee-
.	.	{8dd-
.	16dd-	.
8.B-	4.b-}	[4.b-
8.B-	.	.
8.B-	8.b-	8.b-]
8.B-	{8b-	8ff
.	32dd-	16b-
.	32b-	.
8.A-	8.a-}	8.a-}
=10	=10	=10
8A-	{8.a-	{8.a-
16A-	.	.
8.E-	8.e-	[4.f
8.A-	16a-	.
.	[8f	4.f_
16A-	.	.
8.B-	.	.
8d-	8.f}]	8.f}]
16B-	.	.
=11	=11	=11
8.B-	8.r	8.r
4.B-	4.r	4.r
8B-	8.r	8.r
16d-	.	.
8B-	8.r	8.r
32B-	.	.
32A-	.	.
8F	8.r	8.r
16B-	.	.
=12	=12	=12
8.B-	8.r	8.r
4.B-	4.r	4.r
4.B-	4.r	4.r
8.B-	8.r	8.r
=13	=13	=13
8B-	{16b-	16ee-
.	8ee-	[{8ee-
16A-	.	.
8.B-	8dd-	4.ee-_
.	[16ee-	.
8B-	8.ee-}]	.
16e-	.	.
8.e-	[4.ee-	4.ee-]
8.d-	.	.
8.e-	8.ee-]	8.dd-
=14	=14	=14
8e-	{16dd-	[{4.ee-
.	16ff	.
16d-	32ee-	.
.	32dd-	.
8.B-	[8.b-	.
8d-	8b-}]	8.ee-]
16B-	[16b-	.
8.B-	4.b-_	8.dd-
8.B-	.	4.b-}
8.B-	8.b-]	.
=15	=15	=15
8.d-	{16dd-	16ff
.	8ee-}	[{8ee-
8.e-	4.ee-	4.ee-]
8.e-	.	.
8e-	{16dd-	8.dd-
.	16ff	.
16d-	32ee-	.
.	32dd-	.
8.B-	4.b-}	[4.b-
8d-	.	.
16B-	.	.
=16	=16	=16
8B-	4.b-	4.b-_
16A-	.	.
8.B-	.	.
8d-	{8b-	16b-]
.	.	16dd-
16B-	32dd-	16b-
.	32b-	.
8.A-	8.a-	4.a-
8.F	8.f	.
8.E-	8.e-}	8.f}
=17	=17	=17
8.d-	{8.dd-	16b-
.	.	{32ee-
.	.	[32dd-
.	.	16dd-_
8.B-	4.b-}	4.dd-]
8.B-	8.b-	4.b-
8.B-	{8b-	.
.	32dd-	.
.	32b-	.
8.A-	8.a-}	8.a-}
=18	=18	=18
8.F	{8f	16f
.	.	[8f
.	16e-	.
8F	[8.f	8.f_
16E-	.	.
8F	8f]	8f]
16B-	16b-	16b-
8.A-	4.a-	4.a-
8.F	.	.
8.E-	8.f}	8.f}
=19	=19	=19
8.E-	[{4.e-	[{4.e-
4.E-	.	.
.	8.e-]	8.e-]
16E-	8d-	4.d-
16D-	.	.
16F	16f	.
8.E-	8e-	.
.	16d-	.
8D-	8.B-}	8.B-}
16BB-	.	.
=20	=20	=20
8.B-	8.r	8.r
4.B-	4.r	4.r
4.B-	4.r	4.r
8.B-	8.r	8.r
=21	=21	=21
8.A-	{16a-	16a-
.	8dd-	{8dd-
8.d-	[8.b-	4.b-}
8.B-	8b-}]	.
.	[16b-	.
8e-	4.b-_	[4.b-
16d-	.	.
8.B-	.	.
8d-	8.b-]	8.b-]
16B-	.	.
=22	=22	=22
8B-	{16dd-	16dd-
.	32ee-	{32ee-
.	[32dd-	[32dd-
16A-	16dd-]	16dd-]
8.B-	[8.b-	[8.b-
8d-	8b-]	16b-]
.	.	16dd-
16B-	32dd-	16b-
.	32b-	.
8.A-	8.a-	4.a-
8.F	8.f	.
8.E-	8.e-	8.f}
=23	=23	=23
8.F	{8.dd-	16dd-
.	.	[8b-
8F	[8.b-	4.b-]
16E-	.	.
8F	8b-]	.
16B-	32dd-	.
.	32b-	.
8.A-	4.a-	4.a-
8.F	.	.
8.E-	8.f}	8.f}
=24	=24	=24
8.E-	[{4.e-	[{4.e-
4.E-	.	.
.	8.e-]	8.e-]
16E-	8d-	4.d-
16D-	.	.
16F	16f	.
8.E-	8e-	.
.	16d-	.
8D-	[8.B-	8.B-}
16BB-	.	.
=25	=25	=25
8.B-	8.B-}]	8.B-}
8.B-	8.r	8.r
8.B-	8.r	8.r
8B-	4.r	4.r
16e-	.	.
8d-	.	.
16B-	.	.
8d-	8.r	8.r
16B-	.	.
=26	=26	=26
8B-	8.r	8.r
16A-	.	.
8.B-	8.r	8.r
8d-	8.r	8.r
32B-	.	.
32A-	.	.
8F	8.r	8.r
16A-	.	.
8.B-	8.r	8.r
8d-	8.r	8.r
16B-	.	.
=27	=27	=27
8.B-	8.r	8.r
8.F	{4.f	{4.f
8.F	.	.
4.E-	[4.e-	[4.e-
8.E-	8e-]	8.e-}]
.	[16e-	.
=28	=28	=28
8.E-	4.e-_	[{4.e-
4.E-	.	.
.	8.e-]	8.e-]
16E-	{8d-	4.d-
16D-	.	.
16F	16f	.
8.E-	8e-	.
.	16d-	.
8D-	8.B-}	8.B-}
16BB-	.	.
=29	=29	=29
8.A-	{16a-	16b-
.	8dd-	{32ee-
.	.	[32dd-
.	.	16dd-]
8.d-	[8.b-	[4.b-
8.B-	8b-]	.
.	[16b-	.
8e-	4.b-_	4.b-_
16d-	.	.
8.B-	.	.
8d-	8.b-}]	8.b-}]
16B-	.	.
=30	=30	=30
8B-	{16dd-	16ee-
.	32ee-	{8dd-
.	[32dd-	.
16A-	16dd-]	.
8.B-	[8.b-	8.b-
8d-	8b-]	16b-
.	.	16dd-
16B-	32dd-	16b-}
.	32b-	.
8.A-	8.a-	{4.a-
8.F	8.f	.
8.E-	8.e-}	8.f}
=31	=31	=31
8.F	8.dd-	16dd-
.	.	[8b-
8F	[8.b-	4.b-]
16E-	.	.
8F	8b-]	.
16B-	32dd-	.
.	32b-	.
8.A-	4.a-	{4.a-
8.F	.	.
8.E-	8.f}	8.f}
=32	=32	=32
8.E-	[{4.e-	16a-
.	.	8f
4.E-	.	[8.e-
.	8.e-]	8.e-]
16E-	8d-	{4.d-
16D-	.	.
16F	16f	.
8.E-	8e-	.
.	16d-	.
8D-	[8.B-	8.B-}
16BB-	.	.
=33	=33	=33
8.B-	8.B-}]	8.B-
8.B-	8.r	8.r
8.B-	8.r	8.r
8B-	4.r	4.r
16e-	.	.
8d-	.	.
16B-	.	.
8d-	8.r	8.r
16B-	.	.
=34	=34	=34
8B-	8.r	8.r
16A-	.	.
8.B-	8.r	8.r
8d-	8.r	8.r
32B-	.	.
32A-	.	.
8F	8.r	8.r
16A-	.	.
8.B-	8.r	8.r
8d-	8.r	8.r
16B-	.	.
=35	=35	=35
8.B-	8.r	8.r
8.B-	8.r	8.r
8.B-	8.r	8.r
8B-	8.r	8.r
16d-	.	.
8B-	8.r	8.r
32B-	.	.
32A-	.	.
8F	8.r	8.r
16B-	.	.
=36	=36	=36
8.B-	8.r	8.r
4.B-	4.r	4.r
4.B-	4.r	4.r
8.B-	8.r	8.r
====	====	====
*-	*-	*-
